X:1
T:Title
%%score { ( 1 4 ) | ( 2 3 ) }
L:1/8
M:3/4
K:Bb
V:1 treble nm="Grand Piano"
V:4 treble 
V:2 bass 
V:3 bass 
V:1
 z2 z2[Q:1/4=94] D[CE] | [DF]3 [B,D] [DF][DB] | c2 G2 AB | c3 E AG |[M:2/4] [DF]4 |[M:1/4] D[CE] | %6
[M:3/4] [DF]3 [B,D] [DF][DB] | [FA]2 [EG]2 [Gc][Gd] | [Ge]3 F GA |[M:2/4] [DB]4 |[M:1/4] AB | %11
[M:3/4] c3 =B cd | [DB]2 [DF]2 [CA][DB] | [Ec]3 [D=B] [Ec][=E_d] |[M:2/4] [Fd]4 | %15
[M:1/4] [B,D][CE] |[M:3/4] [DF]3 [DB] [Ec][Fd] | [Gf]2 [Ge]2 [EG][Gc] | B3 A dc |[M:2/4] [DB]4 | %20
[M:1/4] [DF][DF] |[M:3/4] [DF]3 D [CE][DF] | G2 B2 [B,FA][B,EG] | [B,DF]3 [F,B,D] [DB]D | %24
[M:2/4] C4[K:bass] |[M:1/4] D[K:treble]E |[M:3/4] [DF]3 [DB] [Ec][Fd] | [Gf]2 [Ge]2 [EG][Gc] | %28
 B3 A dc[Q:1/4=91][Q:1/4=88][Q:1/4=85][Q:1/4=82][Q:1/4=79][Q:1/4=76][Q:1/4=73] |[M:2/4] [DB]4 |] %30
V:2
 z2 z2 [B,,B,][B,,B,] | [B,,B,]3 [B,,F,] [B,,B,][B,,B,] | [E,G,E]2 [E,CE]2 [F,C][F,B,D] | %3
 [F,A,E]3 [F,A,C] [F,A,F][F,A,E] |[M:2/4] [B,,B,]4 |[M:1/4] [B,,B,][B,,B,] | %6
[M:3/4] [B,,B,]3 [B,,F,] [B,,B,][B,,B,] | [E,B,]2 [E,B,]2 [E,B,][D,=B,] | %8
 [C,C]3 [F,A,] [F,B,=E][F,C_E] |[M:2/4] [B,,B,]4 |[M:1/4] [F,C][F,D] | %11
[M:3/4] [F,E]3 [F,D] [F,E][F,F] | B,,2 B,,2 F,F, | F,3 F, F,F, |[M:2/4] B,,4 |[M:1/4] B,,[B,,B,] | %16
[M:3/4] [B,,B,]3 [B,,B,] [B,,B,][B,,B,] | [E,B,]2 [E,B,]2 [E,B,][E,E] | %18
 [F,DF]3 [F,CF] [F,B,F][F,A,E] |[M:2/4] [B,,B,]4 |[M:1/4] [B,,B,][B,,B,] | %21
[M:3/4] [B,,B,]3 [B,,B,] [B,,B,][B,,B,] | E2 z2 z2 | B,,3 B,, [B,,F,][B,,B,] |[M:2/4] [F,A,]4 | %25
[M:1/4] [D,B,][C,A,C] |[M:3/4] [B,,B,]3 [B,,B,] [B,,B,][B,,B,] | [E,B,]2 [E,B,]2 [E,B,][E,E] | %28
 [F,DF]3 [F,CF] [F,B,F][F,A,E] |[M:2/4] [B,,B,]4 |] %30
V:3
 x6 | x6 | x6 | x6 |[M:2/4] x4 |[M:1/4] x2 |[M:3/4] x6 | x6 | x6 |[M:2/4] x4 |[M:1/4] x2 | %11
[M:3/4] x6 | x6 | x6 |[M:2/4] x4 |[M:1/4] x2 |[M:3/4] x6 | x6 | x6 |[M:2/4] x4 |[M:1/4] x2 | %21
[M:3/4] x6 | [E,B,]2- [E,B,G]2 E,E, | x6 |[M:2/4] x4 |[M:1/4] x2 |[M:3/4] x6 | x6 | x6 | %29
[M:2/4] x4 |] %30
V:4
 x6 | x6 | x6 | x6 |[M:2/4] x4 |[M:1/4] x2 |[M:3/4] x6 | x6 | x6 |[M:2/4] x4 |[M:1/4] x2 | %11
[M:3/4] x6 | x6 | x6 |[M:2/4] x4 |[M:1/4] x2 |[M:3/4] x6 | x6 | x6 |[M:2/4] x4 |[M:1/4] x2 | %21
[M:3/4] x6 | x6 | x6 |[M:2/4] z2 z[K:bass] E, |[M:1/4] x[K:treble] x |[M:3/4] x6 | x6 | x6 | %29
[M:2/4] x4 |] %30

